svg/work-doodle-valters.svg

<svg width="303" height="400" viewBox="0 0 303 400" fill="none" xmlns="http://www.w3.org/2000/svg">
<path d="M91.1117 110C106.33 109.034 121.804 108 137.056 108C141.409 108 149.633 106.29 153.612 108.5C157.407 110.609 162.543 108.909 166.556 110.056C167.623 110.361 162.681 113.431 162.112 114C159.551 116.561 156.477 119.216 153.612 121.444C149.362 124.75 139.849 119.103 136.667 116.5C130.799 111.698 115.489 104.72 110.612 113.5C106.182 121.474 95.508 131.475 86.6117 124.556C81.9979 120.967 79.0017 118.363 75.3339 113.778C73.2559 111.18 81.5329 112 82.1117 112C87.0376 112 91.9635 112 96.8895 112C113.311 112 85.7169 111.978 84.3339 113.222C82.7651 114.634 95.5991 117.844 97.1117 118.222C100.758 119.134 94.0173 116.595 93.3339 116.444C89.8489 115.675 85.8908 115.842 82.3339 116C80.8066 116.068 78.0243 117.734 80.5561 119C83.7639 120.604 88.3869 120.277 91.8895 120.778C98.5533 121.73 98.3665 122 91.7784 122C89.7329 122 89.1108 122.045 91.7784 122C95.8028 121.932 99.5878 121.495 102.889 119C103.796 118.315 109.617 112.534 104.889 114.222C104.06 114.518 100.007 117.588 100.778 117.556C103.223 117.454 104.962 114.899 106.334 113.222C106.69 112.787 103.08 113.848 102.556 114.222C102.044 114.588 100.233 117.577 99.3339 116.778C96.091 113.895 119.442 110.335 116.112 112" stroke="#15CE79" stroke-width="3" stroke-linecap="round"/>
<path d="M152.111 113C150.982 112.762 129.517 110 139.222 110C145.936 110 152.622 109 159.278 109C167.445 109 126.87 106.737 134.778 108.778C141.364 110.477 149.855 109 156.667 109C166.011 109 156.711 109 152.667 109C148.973 109 140.069 108.126 136.945 110.556C135.858 111.401 139.459 111.877 140.834 111.944C145.889 112.191 151.064 112.114 156.111 111.778C178.741 110.269 140.222 110.232 140.222 113.5C140.222 115.901 164.923 112.302 152.334 114.222C139.605 116.164 154.364 116.475 148.889 111C140.845 102.956 140.924 114.139 149.111 117.778C152.155 119.131 143.533 113.929 140.334 113C139.662 112.805 131.581 111.42 135.278 113.5C138.155 115.118 152.016 120.906 153.889 116.222C155.179 112.998 162.272 107.474 155.611 113.556C154.014 115.014 148.722 118.414 150.834 117.944C154.287 117.177 163.982 113.444 160.445 113.444C158.349 113.444 152.237 117.777 150.334 119C148.146 120.406 156.698 116.172 157.945 115.611C161.089 114.196 159.923 114.591 157.167 115.556C154.02 116.657 152.28 117.496 149.111 116C144.652 113.894 139.807 112.483 135.111 111C131.781 109.948 124.566 109.488 132.167 111.5C136.339 112.604 141.298 113.12 145 115.5C146.214 116.281 146.152 118.918 147.111 117" stroke="#15CE79" stroke-width="3" stroke-linecap="round"/>
<path d="M144.111 107C151.418 106.682 158.557 106 165.889 106C168.083 106 172.195 106.107 169.556 109.5C168.918 110.319 163.222 115.97 163.222 114.389C163.222 113.173 165.85 110.538 163.111 111.222C161.178 111.705 160.18 113 158.111 113" stroke="#15CE79" stroke-width="3" stroke-linecap="round"/>
</svg>

<svg xmlns="http://www.w3.org/2000/svg" width="303" height="400" fill="none"><path stroke="#15CE79" stroke-linecap="round" stroke-width="3" d="M91.112 110c15.218-.966 30.692-2 45.944-2 4.353 0 12.577-1.71 16.556.5 3.795 2.109 8.931.409 12.944 1.556 1.067.305-3.875 3.375-4.444 3.944-2.561 2.561-5.635 5.216-8.5 7.444-4.25 3.306-13.763-2.341-16.945-4.944-5.868-4.802-21.178-11.78-26.055-3-4.43 7.974-15.104 17.975-24 11.056-4.614-3.589-7.61-6.193-11.278-10.778-2.078-2.598 6.199-1.778 6.778-1.778H96.89c16.421 0-11.173-.022-12.556 1.222-1.569 1.412 11.265 4.622 12.778 5 3.646.912-3.095-1.627-3.778-1.778-3.485-.769-7.443-.602-11-.444-1.527.068-4.31 1.734-1.778 3 3.208 1.604 7.83 1.277 11.334 1.778 6.663.952 6.477 1.222-.112 1.222-2.045 0-2.667.045 0 0 4.025-.068 7.81-.505 11.111-3 .907-.685 6.728-6.466 2-4.778-.829.296-4.882 3.366-4.111 3.334 2.445-.102 4.184-2.657 5.556-4.334.356-.435-3.254.626-3.778 1-.512.366-2.323 3.355-3.222 2.556-3.243-2.883 20.108-6.443 16.778-4.778"/><path stroke="#15CE79" stroke-linecap="round" stroke-width="3" d="M152.111 113c-1.129-.238-22.594-3-12.889-3 6.714 0 13.4-1 20.056-1 8.167 0-32.408-2.263-24.5-.222 6.586 1.699 15.077.222 21.889.222h-4c-3.694 0-12.598-.874-15.722 1.556-1.087.845 2.514 1.321 3.889 1.388 5.055.247 10.23.17 15.277-.166 22.63-1.509-15.889-1.546-15.889 1.722 0 2.401 24.701-1.198 12.112.722-12.729 1.942 2.03 2.253-3.445-3.222-8.044-8.044-7.965 3.139.222 6.778 3.044 1.353-5.578-3.849-8.777-4.778-.672-.195-8.753-1.58-5.056.5 2.877 1.618 16.738 7.406 18.611 2.722 1.29-3.224 8.383-8.748 1.722-2.666-1.597 1.458-6.889 4.858-4.777 4.388 3.453-.767 13.148-4.5 9.611-4.5-2.096 0-8.208 4.333-10.111 5.556-2.188 1.406 6.364-2.828 7.611-3.389 3.144-1.415 1.978-1.02-.778-.055-3.147 1.101-4.887 1.94-8.056.444-4.459-2.106-9.304-3.517-14-5-3.33-1.052-10.545-1.512-2.944.5 4.172 1.104 9.131 1.62 12.833 4 1.214.781 1.152 3.418 2.111 1.5"/><path stroke="#15CE79" stroke-linecap="round" stroke-width="3" d="M144.111 107c7.307-.318 14.446-1 21.778-1 2.194 0 6.306.107 3.667 3.5-.638.819-6.334 6.47-6.334 4.889 0-1.216 2.628-3.851-.111-3.167-1.933.483-2.931 1.778-5 1.778"/></svg>
